Newaita/actions/16/edit-find.svg

<svg height="16" viewBox="0 0 16 16" width="16" xmlns="http://www.w3.org/2000/svg"><g fill="#424242"><path d="m10.886719 10.089844c-.269531.351562-.582031.667968-.9375.933594l3.242187 3.242187c.128906.128906.335938.128906.464844 0l.46875-.46875c.128906-.128906.128906-.339844 0-.46875zm0 0"/><path d="m6.945312 1.449219c-3.113281 0-5.621093 2.507812-5.621093 5.621093 0 3.117188 2.507812 5.625 5.621093 5.625 3.117188 0 5.625-2.507812 5.625-5.625 0-3.113281-2.507812-5.621093-5.625-5.621093zm0 1.320312c2.382813 0 4.300782 1.917969 4.300782 4.300781 0 2.382813-1.917969 4.300782-4.300782 4.300782-2.382812 0-4.300781-1.917969-4.300781-4.300782 0-2.382812 1.917969-4.300781 4.300781-4.300781zm0 0"/></g></svg>

<?xml version="1.0" encoding="UTF-8"?>
<svg xmlns="http://www.w3.org/2000/svg" xmlns:xlink="http://www.w3.org/1999/xlink" width="16px" height="16px" viewBox="0 0 16 16" version="1.1">
<g id="surface1">
<path style=" stroke:none;fill-rule:nonzero;fill:rgb(25.882354%,25.882354%,25.882354%);fill-opacity:1;" d="M 10.886719 10.089844 C 10.617188 10.441406 10.304688 10.757812 9.949219 11.023438 L 13.191406 14.265625 C 13.320312 14.394531 13.527344 14.394531 13.65625 14.265625 L 14.125 13.796875 C 14.253906 13.667969 14.253906 13.457031 14.125 13.328125 Z M 10.886719 10.089844 "/>
<path style=" stroke:none;fill-rule:nonzero;fill:rgb(25.882354%,25.882354%,25.882354%);fill-opacity:1;" d="M 6.945312 1.449219 C 3.832031 1.449219 1.324219 3.957031 1.324219 7.070312 C 1.324219 10.1875 3.832031 12.695312 6.945312 12.695312 C 10.0625 12.695312 12.570312 10.1875 12.570312 7.070312 C 12.570312 3.957031 10.0625 1.449219 6.945312 1.449219 Z M 6.945312 2.769531 C 9.328125 2.769531 11.246094 4.6875 11.246094 7.070312 C 11.246094 9.453125 9.328125 11.371094 6.945312 11.371094 C 4.5625 11.371094 2.644531 9.453125 2.644531 7.070312 C 2.644531 4.6875 4.5625 2.769531 6.945312 2.769531 Z M 6.945312 2.769531 "/>
</g>
</svg>
